assets/svgs/misc-grey/MiscGrey58.svg

<svg width="38" height="38" viewBox="0 0 38 38" fill="none" xmlns="http://www.w3.org/2000/svg">
<path fill-rule="evenodd" clip-rule="evenodd" d="M34.171 11.37C33.555 10.815 32.612 10.869 32.059 11.48C31.504 12.093 31.551 13.04 32.161 13.597C32.186 13.619 34.599 15.859 34.69 18.913C34.747 20.829 33.873 22.73 32.092 24.565C31.515 25.16 31.528 26.109 32.123 26.687C32.414 26.97 32.791 27.11 33.168 27.11C33.56 27.11 33.95 26.958 34.244 26.655C36.623 24.205 37.782 21.558 37.688 18.786C37.54 14.446 34.309 11.493 34.171 11.37ZM24.834 33.626C24.838 34.508 24.639 34.842 24.568 34.89C24.451 34.969 24.039 34.93 23.812 34.838C21.168 33.584 14.032 30.163 12.772 29.406C11.937 28.906 11.955 28.482 11.989 27.639C11.996 27.48 12.001 27.33 12.001 27.188C11.998 26.257 12.001 11.027 12.001 11.027C12.001 11.026 12.001 11.024 12.001 11.022C11.999 10.434 12.434 10.094 12.541 10.02C13.77 9.43699 20.304 5.85499 23.298 3.96399C23.862 3.61099 24.296 3.60899 24.515 3.72899C24.793 3.87999 24.84 4.26499 24.844 4.50399C24.861 5.19799 24.843 25.756 24.834 33.626ZM8.99998 26.423H3.22998V12.298H9.00098C8.99998 15.489 8.99898 23.791 8.99998 26.423ZM25.946 1.09299C24.7 0.41599 23.113 0.53899 21.7 1.42499C18.517 3.43599 11.862 7.04199 11.248 7.31299C11.199 7.33299 11.151 7.35599 11.105 7.38299C10.586 7.67099 9.83798 8.32599 9.38798 9.29799H1.72998C0.90098 9.29799 0.22998 9.96999 0.22998 10.798V27.923C0.22998 28.751 0.90098 29.423 1.72998 29.423H9.16198C9.40698 30.285 9.96698 31.224 11.229 31.979C12.871 32.965 22.132 37.361 22.567 37.568C22.694 37.623 23.435 37.929 24.348 37.929C24.938 37.929 25.601 37.801 26.216 37.396C27.297 36.686 27.842 35.413 27.834 33.622C27.837 30.705 27.864 5.10699 27.843 4.43499C27.82 2.97499 27.111 1.72599 25.946 1.09299Z" fill="#1A1919"/>
</svg>

<svg xmlns="http://www.w3.org/2000/svg" fill="none" viewBox="0 0 38 38"><path fill="#1A1919" fill-rule="evenodd" d="M34.171 11.37a1.496 1.496 0 00-2.112.11 1.502 1.502 0 00.102 2.117c.025.022 2.438 2.262 2.529 5.316.057 1.916-.817 3.817-2.598 5.652a1.5 1.5 0 102.152 2.09c2.379-2.45 3.538-5.097 3.444-7.869-.148-4.34-3.379-7.293-3.517-7.416zm-9.337 22.256c.004.882-.195 1.216-.266 1.264-.117.079-.529.04-.756-.052-2.644-1.254-9.78-4.675-11.04-5.432-.835-.5-.817-.924-.783-1.767.007-.159.012-.309.012-.451-.003-.931 0-16.161 0-16.161v-.005c-.002-.588.433-.928.54-1.002 1.229-.583 7.763-4.165 10.757-6.056.564-.353.998-.355 1.217-.235.278.151.325.536.329.775.017.694-.001 21.252-.01 29.122zM9 26.423H3.23V12.298h5.771C9 15.489 8.999 23.791 9 26.423zm16.946-25.33C24.7.416 23.113.539 21.7 1.425c-3.183 2.011-9.838 5.617-10.452 5.888-.049.02-.097.043-.143.07-.519.288-1.267.943-1.717 1.915H1.73a1.5 1.5 0 00-1.5 1.5v17.125a1.5 1.5 0 001.5 1.5h7.432c.245.862.805 1.801 2.067 2.556 1.642.986 10.903 5.382 11.338 5.589.127.055.868.361 1.781.361.59 0 1.253-.128 1.868-.533 1.081-.71 1.626-1.983 1.618-3.774.003-2.917.03-28.515.009-29.187-.023-1.46-.732-2.709-1.897-3.342z" clip-rule="evenodd"/></svg>
